Costumes/magicwand.svg

<?xml version="1.0" encoding="UTF-8" standalone="no"?>
<svg
   version="1.1"
   width="81.939743"
   height="36.298428"
   id="svg9"
   sodipodi:docname="magicwand.svg"
   xmlns:inkscape="http://www.inkscape.org/namespaces/inkscape"
   xmlns:sodipodi="http://sodipodi.sourceforge.net/DTD/sodipodi-0.dtd"
   xmlns="http://www.w3.org/2000/svg"
   xmlns:svg="http://www.w3.org/2000/svg">
  <defs
     id="defs13" />
  <sodipodi:namedview
     id="namedview11"
     pagecolor="#ffffff"
     bordercolor="#000000"
     borderopacity="0.25"
     inkscape:showpageshadow="2"
     inkscape:pageopacity="0.0"
     inkscape:pagecheckerboard="0"
     inkscape:deskcolor="#d1d1d1" />
  <!-- Exported by Scratch - http://scratch.mit.edu/ -->
  <g
     id="ID0.6362305395305157"
     transform="matrix(0.59873694,0,0,0.59873694,2.0117956e-4,0)">
    <path
       id="Bolt2"
       fill="#ffc906"
       d="m 121.186,37.5 3.691,6.334 3.227,-2.918 1.916,7.084 2.917,-4 3.917,16.625 -4.98,-9.187 -3,3.874 -2.092,-8 -3.408,2.876 -2.188,-12.688" />
    <path
       id="Bolt1"
       fill="#ffc906"
       d="m 118.437,21.583 12.583,-7.75 -4.238,-0.416 6.571,-5.75 h -4.916 L 132.52,0 120.937,9.833 h 3.94 l -5.024,5.167 3.667,-0.167 -5.083,6.75" />
    <g
       id="Wand">
      <path
         id="Blue"
         fill="#42b5e8"
         d="M 106.321,26.47 C 92.817,26.537 77.853,26.482 67.322,26.485 45.977,26.493 24.177,26.079 2.884,26.352 c -0.021,0.043 -0.044,0.08 -0.061,0.125 -0.305,0.932 -0.462,1.896 -0.437,2.868 0.035,1.331 0.334,2.433 0.78,3.554 31.244,-0.021 69.854,0.677 103.352,0.342 0.138,-0.896 0.292,-2.191 0.292,-3.545 0.001,-1.2 -0.243,-2.358 -0.489,-3.226 z" />
      <path
         id="White"
         fill="#ffffff"
         d="m 106.321,26.47 c 0.246,0.868 0.49,2.026 0.49,3.226 0,1.354 -0.154,2.649 -0.292,3.545 6.364,-0.064 12.547,-0.165 18.456,-0.315 0.236,-0.845 0.557,-1.707 0.569,-2.542 0.017,-1.309 -0.062,-2.885 -0.675,-4.13 -5.308,0.118 -11.744,0.183 -18.548,0.216 z" />
      <path
         id="Outline"
         fill="#231f20"
         d="m 125.922,23.789 c -0.336,-0.373 -0.74,-0.428 -1.09,-0.3 -37.535,0.969 -85.287,0.266 -122.646,1.005 -0.042,0.001 -0.072,0.014 -0.109,0.021 -0.023,0 -0.056,-0.002 -0.068,-0.002 -1.909,0.186 -1.989,3.585 -2.008,4.833 -0.024,1.646 0.257,4.875 2.347,5.522 0.019,0.006 0.051,0.003 0.077,0.004 0.062,0.028 0.123,0.062 0.183,0.065 21.786,0.479 43.438,0.984 65.132,0.979 15.845,-0.006 41.72,0.123 57.56,-0.23 0.881,-0.021 1.365,-0.582 1.464,-1.195 0.823,-1.084 1.02,-3.149 1.071,-4.104 0.119,-2.26 -0.362,-4.879 -1.913,-6.598 z m -0.947,9.136 c -5.909,0.15 -12.092,0.251 -18.456,0.315 C 73.022,33.575 34.412,32.878 3.167,32.898 2.721,31.777 2.422,30.675 2.387,29.344 2.362,28.371 2.519,27.407 2.824,26.476 c 0.017,-0.045 0.04,-0.082 0.061,-0.125 21.293,-0.273 43.093,0.141 64.438,0.133 10.531,-0.002 25.495,0.053 38.999,-0.015 6.805,-0.033 13.24,-0.098 18.549,-0.217 0.612,1.245 0.691,2.821 0.675,4.13 -0.014,0.836 -0.335,1.698 -0.571,2.543 z" />
    </g>
  </g>
</svg>

<svg version="1.1" width="137" height="61" xmlns="http://www.w3.org/2000/svg" xmlns:xlink="http://www.w3.org/1999/xlink">
  <!-- Exported by Scratch - http://scratch.mit.edu/ -->
  <g id="ID0.6362305395305157" transform="matrix(0.5987369418144226, 0, 0, 0.5987369418144226, 0.15, 0.25)">
    <path id="Bolt2" fill="#FFC906" d="M 121.186 37.500 L 124.877 43.834 L 128.104 40.916 L 130.020 48 L 132.937 44 L 136.854 60.625 L 131.874 51.438 L 128.874 55.312 L 126.782 47.312 L 123.374 50.188 L 121.186 37.500 "/>
    <path id="Bolt1" fill="#FFC906" d="M 118.437 21.583 L 131.020 13.833 L 126.782 13.417 L 133.353 7.667 L 128.437 7.667 L 132.520 0 L 120.937 9.833 L 124.877 9.833 L 119.853 15 L 123.520 14.833 L 118.437 21.583 "/>
    <g id="Wand">
      <path id="Blue" fill="#42B5E8" d="M 106.321 26.470 C 92.817 26.537 77.853 26.482 67.322 26.485 C 45.977 26.493 24.177 26.079 2.884 26.352 C 2.863 26.395 2.840 26.432 2.823 26.477 C 2.518 27.409 2.361 28.373 2.386 29.345 C 2.421 30.676 2.720 31.778 3.166 32.899 C 34.410 32.878 73.020 33.576 106.518 33.241 C 106.656 32.345 106.810 31.050 106.810 29.696 C 106.811 28.496 106.567 27.338 106.321 26.470 L 106.321 26.470 Z "/>
      <path id="White" fill="#FFFFFF" d="M 106.321 26.470 C 106.567 27.338 106.811 28.496 106.811 29.696 C 106.811 31.050 106.657 32.345 106.519 33.241 C 112.883 33.177 119.066 33.076 124.975 32.926 C 125.211 32.081 125.532 31.219 125.544 30.384 C 125.561 29.075 125.482 27.499 124.869 26.254 C 119.561 26.372 113.125 26.437 106.321 26.470 L 106.321 26.470 Z "/>
      <path id="Outline" fill="#231F20" d="M 125.922 23.789 C 125.586 23.416 125.182 23.361 124.832 23.489 C 87.297 24.458 39.545 23.755 2.186 24.494 C 2.144 24.495 2.114 24.508 2.077 24.515 C 2.054 24.515 2.021 24.513 2.009 24.513 C 0.100 24.699 0.020 28.098 0.001 29.346 C -0.023 30.992 0.258 34.221 2.348 34.868 C 2.367 34.874 2.399 34.871 2.425 34.872 C 2.487 34.900 2.548 34.934 2.608 34.937 C 24.394 35.416 46.046 35.921 67.740 35.916 C 83.585 35.910 109.460 36.039 125.300 35.686 C 126.181 35.665 126.665 35.104 126.764 34.491 C 127.587 33.407 127.784 31.342 127.835 30.387 C 127.954 28.127 127.473 25.508 125.922 23.789 L 125.922 23.789 Z M 124.975 32.925 C 119.066 33.075 112.883 33.176 106.519 33.240 C 73.022 33.575 34.412 32.878 3.167 32.898 C 2.721 31.777 2.422 30.675 2.387 29.344 C 2.362 28.371 2.519 27.407 2.824 26.476 C 2.841 26.431 2.864 26.394 2.885 26.351 C 24.178 26.078 45.978 26.492 67.323 26.484 C 77.854 26.482 92.818 26.537 106.322 26.469 C 113.127 26.436 119.562 26.371 124.871 26.252 C 125.483 27.497 125.562 29.073 125.546 30.382 C 125.532 31.218 125.211 32.080 124.975 32.925 L 124.975 32.925 Z "/>
    </g>
  </g>
</svg>
